X:1
T:Psalm
T:Friedrich Silcher
T:Psalm 98; 4-5, 7
T:Psalm
T:CPDL   —   Creative Commons Attribution Non Commercial 3.0
T:CPDL   —   Creative Commons Attribution Non Commercial 3.0
T:CPDL   —   Creative Commons Attribution Non Commercial 3.0
T:CPDL   —   Creative Commons Attribution Non Commercial 3.0
T:CPDL   —   Creative Commons Attribution Non Commercial 3.0
C:Friedrich Silcher
Z:Psalm 98; 4-5, 7
Z:CPDL   —   Creative Commons Attribution Non Commercial 3.0
%%score [ ( 1 2 ) ( 3 4 ) ]
L:1/8
Q:1/4=110
M:4/4
K:C
V:1 treble-8 nm="Tenor"
V:2 treble-8 
V:3 bass nm="Bass"
V:4 bass 
V:1
"^Allegro maestoso."!f!"^Kräftig und lebhaft" c3 c!<(! c2 c>c!<)! |!>(! e8!>)! | %2
w: Jauch- zet, jauch- zet dem|Herrn!|
 d2 d2!<(! d2 d>d!<)! |!>(! (d3 B) d2!>)! z2 |!mf! c2 c>!<(!c c2 c2!<)! |!>(! e4 e2!>)!!mf! e2 | %6
w: Sin- get, rüh- met und|lo- * bet,|lo- bet den Herrn mit|Har- fen, mit|
!>(! d3!>)! d d2 d2 |!>(! (d3 B) d2!>)! z2 |!p!!>(! e4 c4 | c4!>)!!pp! c2 c2 | B3 B B2 BB | c6 z2 | %12
w: Har- fen und mit|Psal- * men!|Be- tet|an, be- tet|an, im hei- li- gen|Schmuck!|
!pp! c4 c4 | c4 c2!<(! c2 | c3 c c2 cc!<)! |!>(! d4!>)! z2!f! G2 | !>!G2 G2"^crescendo" G2 G>G | %17
w: Be- tet|an, be- tet|an, im hei- li- gen|Schmuck! Ihr|Völ- ker brin- get dem|
 !^!B8 | !>!d4 !wedge!d2 d2 | !^!d4 z2!f! B2 | !^!B2"^cresc." B2 B2 B>B | !^!d8 | %22
w: Herrn|Eh- re und|Macht, ihr|Völ- ker brin- get dem|Herrn|
 !>!g4 !wedge!d2 d2 | !^!e6 z2 |!ff! !>!c3 c c2 c2 | e4 z2 c2 | c2 cc f2 f2 | %27
w: Eh- re und|Macht.|jauch- zet vor dem|Herrn, dem|Kö- ni- ge mit Trom-|
!>(! (e3 f)!>)! e2!ff! cc | c2 c2 f2 f2 | (e3 f) e2 z2 |: %30
w: me- * ten, mit Trom-|me- ten und Po-|sau- * nen!|
"^1.  \n\n  \nSoli\n \ndolce\n2.    Tutti" e4 e4 |!>(! g3 g!>)! g2"^1. \n\n2.  " d2 | %32
w: Him- mel,|freu- e dich, und|
 (c3 d) c2 c2 |!>(! e4 e4!>)! |"^1.  \n\n2.  " A4 c4 |!>(! c3 G!>)! G2"^1. \n\n2.  " e2 | %36
w: Er- * de, sei|fröh- lich,|Him- mel,|freu- e dich, und|
 (d3 e) d2 f2 |!>(! e4 c2!>)! z2 :|!ff!"^Mit vollster Kraft" !>!G4 G2 G2 | !^!G6 B2 | c3 c c2 c2 | %41
w: Er- * de, sei|fröh- lich!|Brau- se, du|Meer, und|was da- rin- nen|
 B6 z2 | !>!B4 B2 B2 | !^!B6[Q:1/4=100]"^ritenuto" d2 | _e3 e e2 e2 | !fermata!d8 | %46
w: wohnt,|brau- se, du|Meer, und|was da- rin- nen|wohnt!|
"^Soli"!mf![Q:1/4=110]"^a tempo" c3 c!<(! c2 c>c!<)! |!>(! =e8!>)! |!f! d2 d2 d2 d>d | %49
w: Jauch- zet, jauch- zet dem|Herrn!|Sin- get, rüh- met und|
!>(! (d3 B) d2!>)! z2 |!mf!!<(! c2 c>c c2 c2!<)! |!>(! e4 e2!>)! e2 |!f! !>!d3 d d2 d2 | %53
w: lo- * bet,|lo- bet den Herrn mit|Har- fen, mit|Har- fen und mit|
!>(! (d3 B) d2!>)! z2 |:"^1.   \n\n  \n Halbchor\n2.    Chor" e4 c4 | (c4 d2) e2 | f4 d4 | %57
w: Psal- * men!|Sin- get,|prei- * set,|rüh- met|
 (d4 e2) f2 | (g2 f2) e2 d2 | e2 B2 c2 f2 |1 e4!>(! d4 | e8!>)! :|2 e4!>(! d4 || %63
w: lo- * bet!|lo- * bet von|nun an bis in|E- wig-|keit!|E- wig-|
 c4!>)! z2!ff![Q:1/4=96]"^ritenuto" c>c | f8 | e4 z2 c>c | c8 | !fermata!c8 |] %68
w: keit! Hal- le-|lu-|ja! Hal- le-|lu-|ja!|
V:2
 G3 G A2 c>c | c8 | B2 B2 A2 A>A | (B3 G) B2 x2 | G2 G>G A2 c2 | c4 c2 c2 | A3 c B2 A2 | %7
w: |||||||
 (B3 G) B2 x2 | c4 G4 | A4 A2 A2 | ^G3 G G2 GG | A6 x2 | A4 A4 | A4 A2 A2 | G3 G A2 AA | B4 x2 G2 | %16
w: |||||||||
 G2 G2 G2 G>G | G8 | B4 A2 A2 | B4 x2 G2 | G2 G2 G2 G>G | B8 | d4 B2 B2 | c2!ff! !>!c4 c2 | %24
w: |||||||* Jauch- zet|
 c3 c A2 A2 | c2 !>!c4 cc | c2 cc c2 c2 | c4 c2 cc | c2 c2 c2 c2 | c4 c2 x2 |: c4 c4 | d3 d d2 B2 | %32
w: |* jauch- zet dem|||||||
 (A3 B) A2 c2 | B4 B4 | A4 A4 | G3 G G2 c2 | (B3 c) B2 d2 | c4 G2 x2 :| G4 G2 G2 | G6 G2 | %40
w: ||||||||
 G3 G G2 G2 | G4 !>!G4- | G4 G2 G2 | G6 B2 | c3 c c2 c2 | B8 | G3 G A2 c>c | c8 | B2 B2 A2 A>A | %49
w: |* brau-|* se *|||||||
 (B3 G) B2 x2 | G2 G>G A2 c2 | c4 c2 c2 | A3 c B2 A2 | (B3 G) B2 x2 |: c4 c4 | (A4 B2) c2 | A4 d4 | %57
w: ||||||||
 (B4 c2) d2 | (e2 d2) c2 A2 | B2 B2 A2 d2 |1 c4 B4 | c8 :|2 c4 B4 || G4 x2 c>c | c8 | c4 x2 G>G | %66
w: |||||||||
 A8 | G8 |] %68
w: ||
V:3
!f! E,3 E,!<(! F,2 A,>A,!<)! |!>(! G,8!>)! | G,2 G,2!<(! ^F,2 F,>F,!<)! |!>(! (G,3 D,) G,2!>)! z2 | %4
!mf! E,2 E,>!<(!E, F,2 A,2!<)! |!>(! G,4 G,2!>)!!mf! G,2 |!>(! ^F,3!>)! A, G,2 F,2 | %7
!>(! (G,3 D,) G,2!>)! z2 |!p!!>(! G,4 E,4 | E,4!>)!!pp! E,2 E,2 | E,3 E, E,2 E,E, | E,6 z2 | %12
!pp! E,4 E,4 | F,4 F,2!<(! F,2 | E,3 E, E,2 E,^F,!<)! |!>(! G,4!>)! z2!f! G,2 | %16
 !>!G,2 G,2"^crescendo" G,2 G,>G, | !^!D,8 | !>!G,4 !wedge!^F,2 F,2 | !^!G,4 z2!f! D,2 | %20
 !^!D,2"^cresc." D,2 D,2 D,>D, | !^!G,8 | !>!B,4 !wedge!G,2 G,2 | !^!G,6 z2 | %24
!ff! !>!C,3 C, F,2 F,2 | G,4 z2 C2 | C2 CC A,2 A,2 |!>(! (G,3 A,)!>)! G,2!ff! CC | C2 C2 A,2 A,2 | %29
 (G,3 A,) G,2 z2 |: G,4 G,4 |!>(! G,3 G,!>)! G,2 G,2 | E,4 E,2 A,2 |!>(! ^G,4 G,4!>)! | A,4 F,4 | %35
!>(! E,3 E,!>)! E,2 G,2 | G,4 G,2 G,2 |!>(! G,4 E,2!>)! z2 :| %38
!ff!"^Mit vollster Kraft" !>!G,4 G,2 G,2 | !^!G,6 D,2 | _E,3 E, E,2 E,2 | D,6 z2 | !>!D,4 D,2 D,2 | %43
 !^!D,6 G,2 | G,3 G, G,2 G,2 | !fermata!G,8 |!mf! =E,3 E,!<(! F,2 A,>A,!<)! |!>(! G,8!>)! | %48
!f! G,2 G,2 ^F,2 F,>F, |!>(! (G,3 D,) G,2!>)! z2 |!mf!!<(! E,2 E,>E, A,2 A,2!<)! | %51
!>(! G,4 G,2!>)! G,2 |!f! !>!^F,3 A, G,2 F,2 |!>(! (G,3 D,) G,2!>)! z2 |: G,4 G,4 | A,6 G,2 | %56
 F,4 A,4 | G,6 A,2 | (G,2 A,B,) C2 A,2 | ^G,2 G,2 A,2 A,2 |1 =G,4!>(! G,4 | G,8!>)! :|2 %62
 =G,6!>(! F,2 || E,4!>)! z2!ff! C>C | A,8 | G,4 z2 E,>E, | F,8 | !fermata!E,8 |] %68
V:4
 C,3 C, F,2 F,>F, | C,8 | G,2 G,2 D,2 D,>D, | G,,4 G,,2 x2 | C,2 C,>C, F,2 F,2 | C,4 C,2 C,2 | %6
 D,3 D, D,2 D,2 | G,,4 G,,2 x2 | C,4 C,4 | A,,4 A,,2 A,,2 | %10
 [E,,E,]3 [E,,E,] [E,,E,]2 [E,,E,][E,,E,] | A,,6 x2 | A,,4 A,,4 | F,,4 F,2 F,2 | %14
 C,3 C, A,,2 A,,A,, | G,,4 x2 G,2 | G,2 G,2 G,2 G,>G, | G,,8 | G,,4 D,2 D,2 | G,,4 x2 G,,2 | %20
 G,,2 G,,2 G,,2 G,,>G,, | G,,8 | G,4 G,2 G,2 | C,2!ff! !>!C,4 C,2 | C,3 C, C,2 C,2 | %25
 C,2 !>!C,4 C,C, | C,2 C,C, C,2 C,2 | C,4 C,2 C,C, | C,2 C,2 C,2 C,2 | C,4 C,2 x2 |: C,4 C,4 | %31
 B,,3 B,, B,,2 G,,2 | A,,4 A,,2 A,2 | E,4 E,4 | F,4 F,4 | C,3 C, C,2 C,2 | G,,4 G,,2 G,,2 | %37
 C,4 C,2 x2 :| G,,4 G,,2 G,,2 | G,,6 G,,2 | G,,3 G,, G,,2 G,,2 | G,,4 !>!G,,4- | G,,4 G,,2 G,,2 | %43
 G,,6 G,,2 | G,,3 G,, G,,2 G,,2 | G,,8 | C,2 x C, F,2 F,>F, | C,8 | G,2 G,2 D,2 D,>D, | %49
 G,,4 G,,2 x2 | C,2 C,>C, F,2 F,2 | C,4 C,2 C,2 | D,3 D, D,2 D,2 | G,,4 G,,2 x2 |: C,4 E,4 | %55
 F,6 E,2 | D,4 F,4 | G,6 F,2 | (E,2 F,G,) A,2 F,2 | E,2 E,2 A,2 D,2 |1 G,4 G,,4 | C,8 :|2 %62
 G,4 G,,4 || C,4 x2 C,>C, | C,8 | C,4 x2 C,>C, | (F,,4 A,,4) | C,8 |] %68

